X: 16
T: Ballydesmond, The
Z: Andrea Abler
S: https://thesession.org/tunes/238#setting53104
R: polka
M: 2/4
L: 1/8
K: Ador
G/|:"Am"EA AB|"Am"cd eg|"G"G2 G>A|G"Em"E ED|
"Am"EA AB|"Am"cd ee/f/|"Em"ge "G"dB|"Am"A2A2:|
|:"Am"a2 a>b|"Am"ag ef|"G"g2g>a|"Em"ge ed|
"Am"a2a>b|"Am"ag ee/f/|"Em"ge "G"dB|"Am"A2A2:|

